src/icons/outline/ai/agent-assist.svg

<svg width="24" height="24" viewBox="0 0 24 24" fill="none" xmlns="http://www.w3.org/2000/svg">
<g clip-path="url(#clip0_4757_368)">
<path d="M15.7051 13.4951C15.8419 13.4951 15.9792 13.5056 16.1055 13.5449C19.5053 14.3813 21.9999 17.3033 22 20.7861C22 22.0062 20.9578 23 19.6631 23H4.33691C3.0527 23 2 22.0062 2 20.7861C2.00003 18.7201 2.88406 16.8508 4.31543 15.5029C4.37853 15.5717 4.44202 15.6305 4.51562 15.6895C4.82079 15.9255 5.21027 16.0536 5.59961 16.0537C5.78908 16.0537 5.9683 16.0239 6.13672 15.9648C4.56833 17.0668 3.57914 18.8381 3.5791 20.7861C3.5791 21.1895 3.92639 21.5244 4.33691 21.5244H19.6631C20.0841 21.5244 20.4209 21.1895 20.4209 20.7861C20.4208 18.0509 18.484 15.6604 15.7051 14.9717C14.5684 15.5521 13.3053 15.8564 12.0107 15.8564C10.716 15.8564 9.44175 15.5522 8.31543 14.9717C7.81031 15.0996 7.32578 15.2766 6.88379 15.5127C7.08379 15.3061 7.23155 15.0401 7.28418 14.7646C7.41051 14.145 7.92623 13.6436 8.55762 13.5254C8.57114 13.5191 8.5791 13.5156 8.5791 13.5156C8.74735 13.5451 8.9155 13.5942 9.07324 13.6826C9.94693 14.1254 10.9476 14.3809 12.0107 14.3809C13.0737 14.3808 14.0735 14.1252 14.9365 13.6826C15.1786 13.5547 15.442 13.4951 15.7051 13.4951Z" fill="#3C3B44"/>
<path d="M5.59961 9.00879C5.71539 9.00879 5.82106 9.04832 5.90527 9.11719C5.99999 9.18605 6.05218 9.27468 6.07324 9.37305C6.30479 10.4552 7.21036 11.3108 8.31543 11.5176C8.43122 11.5373 8.52593 11.5971 8.59961 11.6758C8.66274 11.7545 8.70508 11.8527 8.70508 11.9609C8.705 12.0593 8.66271 12.1675 8.59961 12.2461C8.52596 12.3247 8.4311 12.3837 8.31543 12.4033C7.32611 12.5904 6.50499 13.2893 6.17871 14.1943C6.13668 14.3024 6.0943 14.4202 6.07324 14.5381C6.0522 14.6462 5.99988 14.7349 5.90527 14.8037C5.82106 14.8627 5.7154 14.9023 5.59961 14.9023C5.49445 14.9022 5.37902 14.8627 5.29492 14.8037C5.27391 14.7939 5.26344 14.7745 5.25293 14.7549C5.18977 14.6958 5.14703 14.6266 5.12598 14.5381C4.90476 13.4658 3.99942 12.6099 2.88379 12.4033C2.77867 12.3836 2.67342 12.3247 2.61035 12.2461C2.53676 12.1675 2.49519 12.0592 2.49512 11.9609C2.49512 11.8529 2.53686 11.7544 2.61035 11.6758C2.67344 11.5972 2.77865 11.5373 2.88379 11.5176C3.99954 11.311 4.90489 10.4553 5.12598 9.37305C5.14703 9.27466 5.21071 9.18606 5.29492 9.11719C5.37902 9.04846 5.4945 9.00889 5.59961 9.00879Z" fill="#3C3B44"/>
<path d="M12.0107 1C15.9684 1.00012 19.1892 4.07944 19.1895 7.86719V8.43848C19.1893 10.6522 17.3157 12.4521 15 12.4521H11.4102C10.7473 12.452 10.2111 11.9312 10.2109 11.3018C10.2109 10.6722 10.7472 10.1603 11.4102 10.1602H12.6104C13.263 10.1602 13.7998 10.6721 13.7998 11.3018H15C16.6526 11.3018 17.9891 10.0225 17.9893 8.43848V7.86719C17.989 4.70914 15.3158 2.14172 12.0107 2.1416C8.70563 2.1416 6.02173 4.70907 6.02148 7.86719V7.92676C5.88464 7.8874 5.74698 7.86719 5.59961 7.86719C5.32611 7.86724 5.06325 7.92695 4.82129 8.04492V7.86719C4.82153 4.07937 8.04247 1 12.0107 1Z" fill="#3C3B44"/>
<path fill-rule="evenodd" clip-rule="evenodd" d="M12.0107 3.29297C14.6526 3.29309 16.7996 5.33883 16.7998 7.86719V8.43848C16.7997 9.39276 15.9999 10.1601 15 10.1602H14.6846C14.253 9.45175 13.463 9.01855 12.6104 9.01855H11.4102C10.3367 9.0187 9.43129 9.68767 9.12598 10.6123C8.95764 10.5042 8.75746 10.426 8.55762 10.3867C8.27348 10.3375 7.99954 10.1996 7.78906 10.0127C7.43118 9.37317 7.2207 8.64445 7.2207 7.86719C7.22094 5.33876 9.35826 3.29297 12.0107 3.29297ZM12.0107 4.76855C10.2425 4.76855 8.80004 6.1554 8.7998 7.86719C8.7998 8.05413 8.82096 8.24177 8.85254 8.42871C9.54719 7.87779 10.4419 7.54305 11.4102 7.54297H12.6104C13.5787 7.54297 14.5049 7.87754 15.2207 8.46777V7.86719C15.2205 6.15547 13.7789 4.76867 12.0107 4.76855Z" fill="#3C3B44"/>
</g>
<defs>
<clipPath id="clip0_4757_368">
<rect width="24" height="24" fill="white"/>
</clipPath>
</defs>
</svg>

<svg xmlns="http://www.w3.org/2000/svg" width="24" height="24" fill="none" viewBox="0 0 24 24"><g fill="currentColor" clip-path="url(#a)"><path d="M15.705 13.495c.137 0 .274.01.4.05 3.4.836 5.895 3.758 5.895 7.241C22 22.006 20.958 23 19.663 23H4.337C3.053 23 2 22.006 2 20.786c0-2.066.884-3.935 2.315-5.283.064.069.127.127.2.187a1.8 1.8 0 0 0 1.085.364q.284 0 .537-.09c-1.569 1.103-2.558 2.874-2.558 4.822 0 .403.347.738.758.738h15.326a.75.75 0 0 0 .758-.738c0-2.735-1.937-5.126-4.716-5.814a8.1 8.1 0 0 1-3.694.884 8.1 8.1 0 0 1-3.696-.884c-.505.128-.99.305-1.431.54.2-.206.348-.472.4-.747a1.61 1.61 0 0 1 1.274-1.24l.021-.01c.168.03.336.08.494.168a6.5 6.5 0 0 0 2.938.698 6.4 6.4 0 0 0 2.926-.698c.242-.128.505-.188.768-.188"/><path d="M5.6 9.009c.115 0 .221.04.305.108a.42.42 0 0 1 .168.256c.232 1.082 1.137 1.938 2.242 2.145.116.02.21.08.285.158a.46.46 0 0 1 .105.285.48.48 0 0 1-.105.285.5.5 0 0 1-.285.157c-.989.187-1.81.886-2.136 1.791a2 2 0 0 0-.106.344.4.4 0 0 1-.168.266.53.53 0 0 1-.305.098.56.56 0 0 1-.305-.098c-.021-.01-.032-.03-.042-.05a.42.42 0 0 1-.127-.216c-.221-1.072-1.127-1.928-2.242-2.135a.47.47 0 0 1-.274-.157.43.43 0 0 1-.115-.285c0-.108.042-.207.115-.285a.48.48 0 0 1 .274-.158C4 11.31 4.904 10.455 5.126 9.373a.5.5 0 0 1 .474-.364M12.01 1c3.958 0 7.18 3.08 7.18 6.867v.571c0 2.214-1.874 4.014-4.19 4.014h-3.59c-.663 0-1.199-.52-1.2-1.15s.537-1.142 1.2-1.142h1.2c.653 0 1.19.512 1.19 1.142H15c1.653 0 2.99-1.28 2.99-2.864v-.57c-.001-3.159-2.674-5.726-5.98-5.726-3.304 0-5.988 2.567-5.989 5.725v.06a1.5 1.5 0 0 0-.421-.06c-.274 0-.537.06-.779.178v-.178C4.821 4.08 8.042 1 12.011 1"/><path fill-rule="evenodd" d="M12.01 3.293c2.643 0 4.79 2.046 4.79 4.574v.571c0 .955-.8 1.722-1.8 1.722h-.315a2.42 2.42 0 0 0-2.075-1.14h-1.2c-1.073 0-1.979.669-2.284 1.593a1.7 1.7 0 0 0-.568-.225 1.6 1.6 0 0 1-.769-.374 4.4 4.4 0 0 1-.568-2.146c0-2.528 2.137-4.574 4.79-4.574m0 1.476c-1.767 0-3.21 1.386-3.21 3.098 0 .187.021.375.053.562a4.1 4.1 0 0 1 2.557-.886h1.2a4.1 4.1 0 0 1 2.61.925v-.6c0-1.713-1.441-3.1-3.21-3.1" clip-rule="evenodd"/></g><defs><clipPath id="a"><path fill="currentColor" d="M0 0h24v24H0z"/></clipPath></defs></svg>
